app/dist/common/images/nord-brasil-on.svg

<svg fill="none" height="18" width="18" xmlns="http://www.w3.org/2000/svg" xmlns:xlink="http://www.w3.org/1999/xlink"><linearGradient id="a" gradientUnits="userSpaceOnUse" x1="3.838" x2="14.704" y1="4.382" y2="14.527"><stop offset=".038" stop-color="#fcd0b3"/><stop offset=".341" stop-color="#f18d20"/></linearGradient><path d="m0 0h18v18h-18z" fill="#921535"/><g clip-rule="evenodd" fill-rule="evenodd"><path d="m4 14h2.198s-.54-4.11 2.802-4.998c0 0-4.79-.271-5 4.998zm6.036-2h1.964s-.32-2.917-3-3c0-.007 1.023.373 1.036 3z" fill="#f0f3fa"/><path d="m12 7.964v-1.964s-2.917.32-3 3c0 0 .38-1.023 3-1.036z" fill="#f0f3fa"/><path d="m6 7.964v-1.964s2.917.32 3 3c.007 0-.373-1.023-3-1.036z" fill="#f0f3fa"/><path d="m5.795 4h6.41c.99 0 1.795.804 1.795 1.795v6.41c0 .99-.804 1.795-1.795 1.795h-5.205v-1h4.755a1.25 1.25 0 0 0 1.245-1.245v-5.51a1.25 1.25 0 0 0 -1.245-1.245h-5.51a1.25 1.25 0 0 0 -1.245 1.245v3.861c-.338.165-.705.497-1 1.138v-5.449c0-.983.804-1.795 1.795-1.795z" fill="url(#a)"/></g></svg>

<!-- by TradingView --><svg width="18" height="18" fill="none" xmlns="http://www.w3.org/2000/svg"><path fill="#921535" d="M0 0h18v18H0z"/><path fill-rule="evenodd" clip-rule="evenodd" d="M4 14h2.198S5.658 9.89 9 9.002c0 0-4.79-.271-5 4.998ZM10.036 12H12s-.32-2.917-3-3c0-.007 1.023.373 1.036 3Z" fill="#F0F3FA"/><path fill-rule="evenodd" clip-rule="evenodd" d="M12 7.964V6s-2.917.32-3 3c0 0 .38-1.023 3-1.036Z" fill="#F0F3FA"/><path fill-rule="evenodd" clip-rule="evenodd" d="M6 7.964V6s2.917.32 3 3c.007 0-.373-1.023-3-1.036Z" fill="#F0F3FA"/><path fill-rule="evenodd" clip-rule="evenodd" d="M5.795 4h6.41C13.195 4 14 4.804 14 5.795v6.41c0 .99-.804 1.795-1.795 1.795H7v-1h4.755A1.25 1.25 0 0 0 13 11.755v-5.51A1.25 1.25 0 0 0 11.755 5h-5.51A1.25 1.25 0 0 0 5 6.245v3.861c-.338.165-.705.497-1 1.138V5.795C4 4.812 4.804 4 5.795 4Z" fill="url(#a)"/><defs><linearGradient id="a" x1="3.838" y1="4.382" x2="14.704" y2="14.527" gradientUnits="userSpaceOnUse"><stop offset=".038" stop-color="#FCD0B3"/><stop offset=".341" stop-color="#F18D20"/></linearGradient></defs></svg>
